dist/img/svg/vk_c.svg

<svg width="40" height="41" viewBox="0 0 40 41" fill="none" xmlns="http://www.w3.org/2000/svg">
<path fill-rule="evenodd" clip-rule="evenodd" d="M1 8.70801C1.30856 23.699 8.71391 32.708 21.6971 32.708H22.433V24.1314C27.2037 24.6119 30.8112 28.1434 32.2591 32.708H39C37.1487 25.8852 32.2827 22.1134 29.2446 20.672C32.2827 18.8942 36.555 14.5699 37.5757 8.70801H31.4519C30.1227 13.4648 26.1831 17.7891 22.433 18.1975V8.70801H16.3091V25.3326C12.5114 24.3717 7.71703 19.711 7.50342 8.70801H1Z" fill="#0077FF"/>
</svg>

<svg width="40" height="41" viewBox="0 0 40 41" fill="none" xmlns="http://www.w3.org/2000/svg"><path fill-rule="evenodd" clip-rule="evenodd" d="M1 8.708c.309 14.991 7.714 24 20.697 24h.736v-8.577c4.77.48 8.378 4.012 9.826 8.577H39c-1.851-6.823-6.717-10.595-9.755-12.036 3.038-1.778 7.31-6.102 8.33-11.964h-6.123c-1.33 4.757-5.269 9.081-9.019 9.49v-9.49h-6.124v16.625c-3.798-.961-8.592-5.622-8.806-16.625H1z" fill="#07F"/></svg>
